X:312
T:Eliza Jane
M:2/4
L:1/8
K:D
P:A
A|"D"FF "A"ED|"D"FA A2|"G"B "D"A2F|"A"A3 A|"D"FF "A"ED|"D"FA A2|"A"FF2E|1D3:|2D4||
P:B
"D"d3A|"G"B2"D"A2|BA2F|"A"A3d|"D"d3A|"G"B2"D"A2|F/F/"A"F FE|1"D"D4:|2"D"D3|]

%%newpage

